X: 1
T: Cellar Sessions, The
M: 6/8
L: 1/8
R: jig
K: Amaj
|:A2c BAF|FEE EFA|BBB BAB|c2f  ecB|
AcB cBA|FEE EFA|BBB fec|BAF A2e:|
|:f3 fec|BAF A2F|BAB BAB|c2f ecB|
a2a fae|fec BAF|EFA fec|BAF A3:|
